src/icons/svg/box1.svg

<?xml version="1.0" encoding="UTF-8"?>
<svg width="21px" height="20px" viewBox="0 0 21 20" version="1.1" xmlns="http://www.w3.org/2000/svg" xmlns:xlink="http://www.w3.org/1999/xlink">
    <!-- Generator: Sketch 57.1 (83088) - https://sketch.com -->
    <title>编组</title>
    <desc>Created with Sketch.</desc>
    <g id="页面-1" stroke="none" stroke-width="1" fill="none" fill-rule="evenodd">
        <g id="侧边栏v2.8.0" transform="translate(-19.000000, -348.000000)" fill="#000000" fill-rule="nonzero">
            <g id="编组" transform="translate(19.000000, 348.000000)">
                <path d="M8.51394982,6.70896623 C8.48393589,6.70896623 8.45389911,6.70713891 8.42388518,6.70305025 C7.42316937,6.57431467 5.98668047,6.18312846 4.82764915,5.05184975 C4.03524926,4.27765467 3.75779165,3.14637596 4.10350013,2.09926875 C4.47013156,0.986194844 5.46993368,0.214283906 6.77633937,0.0341546205 C7.47865179,-0.0609123438 8.19827815,0.172438013 8.76050268,0.677352812 C9.28997228,1.154515 9.69662228,1.62121574 10.0004848,2.11292806 C10.2770516,1.7053644 10.6309374,1.29780071 11.0730833,0.872945915 C11.8090643,0.166065179 12.8479942,-0.115047076 13.7759365,0.137421741 C14.8949264,0.441284286 15.723713,1.240491 15.9929933,2.27533223 C16.2504416,3.26741388 15.9538655,4.3313554 15.2169709,5.05141576 C14.314497,5.93159614 13.1472884,6.48198868 11.7472091,6.68804326 C11.3642002,6.7458098 11.0103144,6.48016134 10.9539184,6.09806612 C10.8975223,5.71642772 11.1622571,5.36162828 11.5434387,5.30523223 C12.6469648,5.14330772 13.5539841,4.72162792 14.2408327,4.05204761 C14.6247553,3.67586837 14.7748478,3.14320096 14.6402191,2.62693384 C14.4973902,2.07517078 14.0488943,1.6594298 13.4102416,1.48565049 C12.9535455,1.36374458 12.4195304,1.51749176 12.041067,1.88049136 C11.2077349,2.6815254 10.7919939,3.3388169 10.6527968,4.07980022 C10.590028,4.41004489 10.3016292,4.6488544 9.96594824,4.6488544 C9.63024442,4.6488544 9.3418685,4.41004489 9.27909964,4.07980022 C9.1353571,3.31698027 8.83240821,2.62284518 7.8253196,1.71628268 C7.57422127,1.49021882 7.25309042,1.37786069 6.96743268,1.41879295 C6.18960576,1.5256919 5.62918571,1.93325558 5.4299608,2.53686917 C5.25346333,3.07316842 5.39720587,3.65403174 5.80476953,4.05204759 C6.73271181,4.95906692 7.9563165,5.23380636 8.60223286,5.31749819 C8.98524174,5.3666306 9.25543569,5.71688455 9.2063033,6.09941377 C9.16077984,6.45197475 8.85965828,6.70896623 8.51394982,6.70896623 Z" id="路径"></path>
                <path d="M16.4760487,19.718797 L3.56857136,19.718797 C2.78708978,19.718797 2.15209174,19.0151141 2.15209174,18.1503975 L2.15209174,9.57965991 L17.8916146,9.57965991 L17.8916146,18.1503747 C17.8916146,19.0150913 17.2566166,19.718797 16.4760487,19.718797 Z M3.54947574,10.9770439 L3.54947574,18.1503975 C3.54947574,18.2641261 3.59860815,18.3232403 3.61041728,18.3314405 L16.4733077,18.3214358 C16.4478392,18.3196085 16.4942306,18.2609283 16.4942306,18.1503975 L16.4760258,10.9770439 L3.54947574,10.9770439 Z" id="形状"></path>
                <path d="M17.3039217,10.9015294 L2.74072121,10.9015294 C1.23963609,10.9015294 0.0187724107,9.68064288 0.0187724107,8.1795806 L0.0187724107,8.03357674 C0.0187724107,6.53249163 1.23965893,5.31160509 2.74072121,5.31160509 L17.3039445,5.31160509 C18.8050296,5.31160509 20.0258933,6.53249161 20.0258933,8.03357674 L20.0258933,8.1795806 C20.0258933,9.68064286 18.8050068,10.9015294 17.3039217,10.9015294 Z M2.74072121,6.70896623 C2.01019935,6.70896623 1.41613357,7.30303203 1.41613357,8.03355386 L1.41613357,8.17955772 C1.41613357,8.91007958 2.01019938,9.50414536 2.74072121,9.50414536 L17.3039445,9.50414536 C18.0344663,9.50414536 18.6285321,8.91007955 18.6285321,8.17955772 L18.6285321,8.03355386 C18.6285321,7.30303201 18.0344663,6.70896623 17.3039445,6.70896623 L2.74072121,6.70896623 Z" id="形状"></path>
            </g>
        </g>
    </g>
</svg>

<svg width="21" height="20" xmlns="http://www.w3.org/2000/svg"><g><path d="M8.514 6.709a.666.666 0 0 1-.09-.006c-1-.129-2.437-.52-3.596-1.651a2.852 2.852 0 0 1-.724-2.953C4.47.986 5.47.214 6.776.034 7.48-.06 8.198.172 8.761.677c.529.478.936.944 1.24 1.436.276-.408.63-.815 1.072-1.24.736-.707 1.775-.988 2.703-.736 1.119.304 1.948 1.103 2.217 2.138a2.88 2.88 0 0 1-.776 2.776c-.903.88-2.07 1.431-3.47 1.637a.699.699 0 0 1-.204-1.383c1.104-.162 2.011-.583 2.698-1.253a1.46 1.46 0 0 0 .4-1.425c-.144-.552-.592-.968-1.23-1.141-.457-.122-.991.031-1.37.394-.833.802-1.249 1.459-1.388 2.2a.7.7 0 0 1-1.374 0c-.144-.763-.447-1.457-1.454-2.364-.25-.226-.572-.338-.858-.297-.777.107-1.338.514-1.537 1.118a1.466 1.466 0 0 0 .375 1.515c.928.907 2.151 1.182 2.797 1.265a.699.699 0 0 1-.088 1.392zM16.476 19.719H3.569c-.782 0-1.417-.704-1.417-1.569V9.58h15.74v8.57c0 .865-.635 1.569-1.416 1.569zM3.549 10.977v7.173c0 .114.05.173.061.181l12.863-.01c-.025-.001.021-.06.021-.17l-.018-7.174H3.549z"/><path d="M17.304 10.902H2.74A2.725 2.725 0 0 1 .019 8.18v-.146A2.725 2.725 0 0 1 2.74 5.312h14.563a2.725 2.725 0 0 1 2.722 2.722v.146a2.725 2.725 0 0 1-2.722 2.722zM2.74 6.709c-.73 0-1.325.594-1.325 1.325v.146c0 .73.594 1.324 1.325 1.324h14.563c.73 0 1.325-.594 1.325-1.324v-.146c0-.731-.595-1.325-1.325-1.325H2.74z"/></g></svg>
